; generated by PrusaSlicer 2.1.1+win64 on 2020-02-10 at 12:08:49 UTC

; 

; external perimeters extrusion width = 0.60mm
; perimeters extrusion width = 0.50mm
; infill extrusion width = 0.50mm
; solid infill extrusion width = 0.50mm
; top infill extrusion width = 0.45mm
; support material extrusion width = 0.38mm
; first layer extrusion width = 0.42mm

M73 P0 R111
M73 Q0 S112
M201 X1000 Y1000 Z1000 E5000 ; sets maximum accelerations, mm/sec^2
M203 X200 Y200 Z12 E120 ; sets maximum feedrates, mm/sec
M204 P1250 R1250 T1250 ; sets acceleration (P, T) and retract acceleration (R), mm/sec^2
M205 X8.00 Y8.00 Z0.40 E1.50 ; sets the jerk limits, mm/sec
M205 S0 T0 ; sets the minimum extruding and travel feed rate, mm/sec
M107
M862.3 P "MK3S" ; printer model check
M862.1 P0.4 ; nozzle diameter check
M115 U3.8.1 ; tell printer latest fw version
G90 ; use absolute coordinates
M83 ; extruder relative mode
M104 S215 ; set extruder temp
M140 S60 ; set bed temp
M190 S60 ; wait for bed temp
M109 S215 ; wait for extruder temp
G28 W ; home all without mesh bed level
G80 ; mesh bed leveling
G1 Y-3.0 F1000.0 ; go outside print area
G92 E0.0
G1 X60.0 E9.0 F1000.0 ; intro line
M73 Q0 S112
M73 P0 R111
G1 X100.0 E12.5 F1000.0 ; intro line
G92 E0.0
M221 S95
G21 ; set units to millimeters
G90 ; use absolute coordinates
M83 ; use relative distances for extrusion
M900 K30 ; Filament gcode
;BEFORE_LAYER_CHANGE
G92 E0.0
;0.2


G1 E-0.80000 F2100.00000
G1 Z0.600 F10800.000
;AFTER_LAYER_CHANGE
;0.2
G1 X88.814 Y75.665
G1 Z0.200
G1 E0.80000 F2100.00000
M204 S1000
G1 F1200
G1 X90.477 Y73.713 E0.08039
G1 X92.473 Y71.643 E0.09017
G1 X94.581 Y69.710 E0.08968
G1 X97.003 Y67.760 E0.09750
G1 X100.075 Y65.637 E0.11707
G1 X103.291 Y63.776 E0.11649
G1 X106.645 Y62.177 E0.11652
G1 X110.126 Y60.848 E0.11684
G1 X113.695 Y59.802 E0.11660
G1 X117.584 Y59.003 E0.12447
G1 X121.284 Y58.558 E0.11687
G1 X125.006 Y58.409 E0.11679
G1 X129.014 Y58.583 E0.12579
G1 X133.248 Y59.145 E0.13390
G1 X137.166 Y60.026 E0.12593
G1 X141.232 Y61.328 E0.13385
G1 X144.934 Y62.889 E0.12598
G1 X148.707 Y64.892 E0.13392
G1 X152.280 Y67.231 E0.13390
G1 X155.434 Y69.723 E0.12605
G1 X157.731 Y71.843 E0.09799
G1 X159.717 Y73.928 E0.09028
G1 X173.332 Y89.628 E0.65157
G1 X173.832 Y90.318 E0.02671
G1 X174.330 Y91.423 E0.03801
G1 X174.554 Y92.614 E0.03801
G1 X174.565 Y101.373 E0.27463
G1 X174.514 Y102.090 E0.02253
G1 X174.363 Y102.792 E0.02253
G1 X169.499 Y118.802 E0.52463
G1 X168.572 Y121.497 E0.08936
G1 X167.477 Y124.142 E0.08975
G1 X165.546 Y127.950 E0.13387
G1 X163.418 Y131.358 E0.12597
G1 X160.846 Y134.762 E0.13378
G1 X158.153 Y137.735 E0.12577
G1 X156.498 Y139.330 E0.07206
G1 X154.779 Y140.831 E0.07156
G1 X152.988 Y142.247 E0.07159
G1 X151.108 Y143.588 E0.07239
G1 X149.197 Y144.814 E0.07119
G1 X147.200 Y145.961 E0.07221
G1 X145.164 Y147.001 E0.07169
G1 X142.845 Y148.038 E0.07965
G1 X140.695 Y148.867 E0.07225
G1 X138.525 Y149.584 E0.07165
G1 X136.319 Y150.195 E0.07177
G1 X134.089 Y150.695 E0.07165
G1 X131.835 Y151.087 E0.07176
G1 X129.567 Y151.366 E0.07164
G1 X127.286 Y151.534 E0.07172
G1 X124.999 Y151.591 E0.07171
G1 X122.718 Y151.535 E0.07154
G1 X120.417 Y151.365 E0.07237
G1 X117.897 Y151.046 E0.07962
G1 X115.634 Y150.639 E0.07211
G1 X113.402 Y150.124 E0.07183
G1 X111.186 Y149.496 E0.07221
G1 X108.784 Y148.677 E0.07956
G1 X106.659 Y147.829 E0.07174
G1 X104.564 Y146.869 E0.07226
G1 X102.533 Y145.816 E0.07172
G1 X100.557 Y144.664 E0.07173
G1 X98.629 Y143.409 E0.07212
G1 X96.575 Y141.914 E0.07966
G1 X94.798 Y140.475 E0.07169
G1 X93.086 Y138.944 E0.07201
G1 X91.449 Y137.327 E0.07216
G1 X89.350 Y134.996 E0.09833
G1 X87.410 Y132.526 E0.09848
G1 X76.361 Y116.908 E0.59986
G1 X75.907 Y116.116 E0.02862
G1 X73.472 Y110.153 E0.20194
G1 X73.186 Y109.072 E0.03506
G1 X73.130 Y108.345 E0.02288
G1 X73.130 Y97.581 E0.33750
G1 X73.192 Y96.792 E0.02479
G1 X73.373 Y96.028 E0.02462
G1 X73.669 Y95.301 E0.02462
G1 X74.077 Y94.624 E0.02479
G1 X88.776 Y75.711 E0.75104
G1 F8640
G1 X90.477 Y73.713 E-0.60584
G1 X90.941 Y73.233 E-0.15416
G1 E-0.04000 F2100.00000
G1 Z0.800 F10800.000
G1 X167.978 Y88.051
G1 Z0.200
G1 E0.80000 F2100.00000
G1 F1200
G1 X170.213 Y88.086 E0.07008
G1 X171.192 Y88.338 E0.03168
G1 X172.263 Y88.900 E0.03795
G1 X173.668 Y90.356 E0.06345
G1 X174.059 Y91.179 E0.02855
G1 X174.376 Y92.494 E0.04241
G1 X174.376 Y101.899 E0.29490
G1 X173.948 Y103.415 E0.04939
G1 X173.329 Y104.366 E0.03560
G1 X172.374 Y105.263 E0.04107
G1 X171.201 Y105.883 E0.04161
G1 X171.128 Y107.810 E0.06045
G1 X171.044 Y108.958 E0.03610
G1 X170.931 Y110.098 E0.03591
G1 X170.789 Y111.247 E0.03630
G1 X170.587 Y112.583 E0.04236
G1 X170.380 Y113.736 E0.03672
G1 X170.148 Y114.865 E0.03615
G1 X169.834 Y116.206 E0.04318
G1 X169.539 Y117.327 E0.03634
G1 X169.147 Y118.663 E0.04366
G1 X168.796 Y119.752 E0.03586
G1 X168.403 Y120.871 E0.03720
G1 X167.918 Y122.138 E0.04252
G1 X167.474 Y123.211 E0.03640
G1 X167.006 Y124.266 E0.03621
G1 X166.514 Y125.305 E0.03603
G1 X165.907 Y126.500 E0.04203
G1 X165.334 Y127.557 E0.03768
G1 X164.764 Y128.548 E0.03585
G1 X164.056 Y129.704 E0.04253
G1 X163.260 Y130.921 E0.04558
G1 X162.609 Y131.856 E0.03572
G1 X161.927 Y132.787 E0.03619
G1 X161.105 Y133.846 E0.04203
G1 X160.377 Y134.735 E0.03605
G1 X159.595 Y135.641 E0.03750
G1 X158.692 Y136.631 E0.04204
G1 X157.858 Y137.497 E0.03768
G1 X157.060 Y138.284 E0.03516
G1 X156.227 Y139.067 E0.03584
G1 X155.389 Y139.816 E0.03524
G1 X154.515 Y140.560 E0.03598
G1 X153.640 Y141.269 E0.03530
G1 X152.738 Y141.963 E0.03571
G1 X151.822 Y142.633 E0.03556
G1 X150.886 Y143.284 E0.03576
G1 X149.943 Y143.904 E0.03537
G1 X148.980 Y144.505 E0.03561
G1 X148.004 Y145.081 E0.03552
G1 X147.009 Y145.636 E0.03574
G1 X146.017 Y146.158 E0.03512
G1 X144.988 Y146.667 E0.03602
G1 X143.951 Y147.149 E0.03585
G1 X142.721 Y147.681 E0.04202
G1 X141.650 Y148.110 E0.03619
G1 X140.588 Y148.505 E0.03551
G1 X139.501 Y148.879 E0.03603
G1 X138.430 Y149.219 E0.03525
G1 X137.330 Y149.538 E0.03591
G1 X136.237 Y149.826 E0.03543
G1 X135.125 Y150.091 E0.03586
G1 X134.021 Y150.325 E0.03538
G1 X132.900 Y150.533 E0.03575
G1 X131.767 Y150.715 E0.03597
G1 X130.648 Y150.867 E0.03542
G1 X129.511 Y150.993 E0.03585
G1 X128.389 Y151.089 E0.03532
G1 X127.244 Y151.159 E0.03596
G1 X126.120 Y151.200 E0.03528
G1 X124.971 Y151.213 E0.03604
G1 X123.852 Y151.199 E0.03509
G1 X122.706 Y151.156 E0.03596
G1 X121.577 Y151.087 E0.03547
G1 X120.432 Y150.987 E0.03603
G1 X119.100 Y150.835 E0.04202
G1 X117.968 Y150.675 E0.03585
G1 X116.824 Y150.484 E0.03636
G1 X115.684 Y150.265 E0.03642
G1 X114.579 Y150.023 E0.03545
G1 X113.477 Y149.754 E0.03557
G1 X112.383 Y149.458 E0.03553
G1 X111.277 Y149.129 E0.03619
G1 X110.003 Y148.712 E0.04202
G1 X108.927 Y148.328 E0.03581
G1 X107.855 Y147.916 E0.03602
G1 X106.789 Y147.474 E0.03620
G1 X105.746 Y147.012 E0.03575
G1 X104.712 Y146.522 E0.03587
G1 X103.700 Y146.012 E0.03554
G1 X102.683 Y145.468 E0.03617
G1 X101.519 Y144.803 E0.04202
G1 X100.541 Y144.210 E0.03585
G1 X99.578 Y143.593 E0.03587
G1 X98.634 Y142.954 E0.03573
G1 X97.668 Y142.264 E0.03724
G1 X96.599 Y141.456 E0.04203
G1 X95.701 Y140.739 E0.03603
G1 X94.838 Y140.013 E0.03534
G1 X93.981 Y139.256 E0.03586
G1 X93.155 Y138.490 E0.03531
G1 X92.332 Y137.688 E0.03604
G1 X91.546 Y136.883 E0.03527
G1 X90.345 Y135.574 E0.05571
G1 X89.123 Y134.129 E0.05934
G1 X87.867 Y132.510 E0.06425
G1 X86.763 Y130.955 E0.05980
G1 X85.810 Y129.491 E0.05477
G1 X84.790 Y127.778 E0.06249
G1 X83.842 Y126.017 E0.06272
G1 X82.993 Y124.265 E0.06105
G1 X82.296 Y122.665 E0.05472
G1 X81.579 Y120.820 E0.06205
G1 X80.950 Y118.944 E0.06206
G1 X79.536 Y118.824 E0.04448
G1 X77.886 Y118.158 E0.05578
G1 X76.836 Y117.288 E0.04275
G1 X76.058 Y116.122 E0.04395
G1 X75.629 Y114.546 E0.05123
G1 X75.629 Y112.381 E0.06787
G1 X75.254 Y112.159 E0.01364
G1 X74.161 Y111.059 E0.04864
G1 X73.647 Y110.135 E0.03314
G1 X73.363 Y109.150 E0.03213
G1 X73.319 Y97.128 E0.37695
G1 X73.644 Y95.778 E0.04354
G1 X74.249 Y94.681 E0.03929
G1 X75.379 Y93.564 E0.04980
G1 X76.455 Y92.988 E0.03826
G1 X77.600 Y92.703 E0.03701
G1 X80.464 Y92.683 E0.08980
G1 X80.946 Y91.038 E0.05375
G1 X81.311 Y89.936 E0.03637
G1 X81.983 Y88.111 E0.06100
G1 X82.415 Y87.049 E0.03594
G1 X82.877 Y85.991 E0.03621
G1 X83.718 Y84.228 E0.06124
G1 X84.243 Y83.215 E0.03576
G1 X84.795 Y82.214 E0.03586
G1 X85.358 Y81.247 E0.03509
G1 X85.956 Y80.277 E0.03573
G1 X86.572 Y79.330 E0.03542
G1 X87.218 Y78.387 E0.03583
G1 X87.889 Y77.460 E0.03589
G1 X88.573 Y76.562 E0.03538
G1 X89.276 Y75.683 E0.03528
G1 X90.006 Y74.816 E0.03555
G1 X91.334 Y73.341 E0.06222
G1 X92.115 Y72.531 E0.03530
G1 X92.929 Y71.726 E0.03588
G1 X94.388 Y70.380 E0.06224
G1 X95.247 Y69.638 E0.03558
G1 X96.126 Y68.917 E0.03566
G1 X97.008 Y68.228 E0.03509
G1 X97.910 Y67.559 E0.03521
G1 X99.369 Y66.546 E0.05570
G1 X100.957 Y65.533 E0.05907
G1 X102.669 Y64.540 E0.06204
G1 X104.182 Y63.741 E0.05366
G1 X105.755 Y62.984 E0.05471
G1 X107.356 Y62.287 E0.05474
G1 X108.949 Y61.664 E0.05365
G1 X110.804 Y61.021 E0.06154
G1 X112.623 Y60.475 E0.05956
G1 X114.300 Y60.042 E0.05431
G1 X116.036 Y59.664 E0.05569
G1 X117.887 Y59.337 E0.05895
G1 X119.676 Y59.094 E0.05662
G1 X121.548 Y58.916 E0.05894
G1 X123.292 Y58.818 E0.05479
G1 X125.054 Y58.787 E0.05524
G1 X127.017 Y58.831 E0.06157
G1 X128.985 Y58.958 E0.06181
G1 X130.094 Y59.068 E0.03496
G1 X131.200 Y59.204 E0.03494
G1 X133.181 Y59.516 E0.06286
G1 X135.133 Y59.911 E0.06246
G1 X137.071 Y60.391 E0.06259
G1 X138.138 Y60.693 E0.03479
G1 X139.208 Y61.025 E0.03510
G1 X141.053 Y61.664 E0.06124
G1 X142.945 Y62.413 E0.06379
G1 X144.804 Y63.245 E0.06386
G1 X146.552 Y64.120 E0.06127
G1 X147.527 Y64.649 E0.03478
G1 X148.498 Y65.206 E0.03511
G1 X150.194 Y66.258 E0.06257
G1 X151.849 Y67.386 E0.06279
G1 X153.446 Y68.579 E0.06250
G1 X154.992 Y69.841 E0.06260
G1 X156.069 Y70.789 E0.04499
G1 X157.306 Y71.954 E0.05326
G1 X158.475 Y73.139 E0.05221
G1 X159.606 Y74.372 E0.05245
G1 X160.709 Y75.665 E0.05329
G1 X161.757 Y76.989 E0.05291
G1 X162.787 Y78.394 E0.05464
G1 X163.737 Y79.798 E0.05315
G1 X164.628 Y81.224 E0.05271
G1 X165.485 Y82.714 E0.05390
G1 X166.257 Y84.179 E0.05193
G1 X166.902 Y85.509 E0.04634
G1 X167.579 Y87.036 E0.05238
G1 X167.956 Y87.995 E0.03232
G1 X167.720 Y88.424 F10800.000
G1 F1200
G1 X170.185 Y88.462 E0.07730
G1 X171.038 Y88.683 E0.02764
G1 X172.016 Y89.185 E0.03445
G1 X173.342 Y90.548 E0.05962
G1 X173.698 Y91.288 E0.02576
G1 X173.999 Y92.517 E0.03966
G1 X173.999 Y101.872 E0.29333
G1 X173.594 Y103.282 E0.04600
G1 X173.027 Y104.139 E0.03221
G1 X172.135 Y104.970 E0.03824
G1 X171.214 Y105.459 E0.03269
G1 X170.824 Y105.566 E0.01269
G1 X170.815 Y106.400 E0.02615
G1 X170.752 Y107.784 E0.04344
G1 X170.668 Y108.928 E0.03597
G1 X170.557 Y110.054 E0.03547
G1 X170.416 Y111.193 E0.03599
G1 X170.215 Y112.524 E0.04220
G1 X170.010 Y113.662 E0.03626
G1 X169.781 Y114.782 E0.03583
G1 X169.468 Y116.118 E0.04302
G1 X169.175 Y117.228 E0.03602
G1 X168.786 Y118.555 E0.04334
G1 X168.438 Y119.634 E0.03555
G1 X168.049 Y120.739 E0.03674
G1 X167.567 Y122.001 E0.04236
G1 X167.129 Y123.060 E0.03594
G1 X166.664 Y124.107 E0.03592
G1 X166.176 Y125.137 E0.03572
G1 X165.572 Y126.327 E0.04187
G1 X165.006 Y127.371 E0.03722
G1 X164.441 Y128.353 E0.03553
G1 X163.736 Y129.505 E0.04236
G1 X162.949 Y130.708 E0.04507
G1 X162.304 Y131.635 E0.03542
G1 X161.627 Y132.558 E0.03587
G1 X160.809 Y133.613 E0.04187
G1 X160.086 Y134.494 E0.03573
G1 X159.315 Y135.389 E0.03704
G1 X158.415 Y136.375 E0.04187
G1 X157.591 Y137.230 E0.03721
G1 X156.800 Y138.011 E0.03487
G1 X155.974 Y138.788 E0.03555
G1 X155.143 Y139.531 E0.03495
G1 X154.276 Y140.269 E0.03569
G1 X153.409 Y140.971 E0.03501
G1 X152.513 Y141.660 E0.03542
G1 X151.605 Y142.325 E0.03527
G1 X150.676 Y142.970 E0.03547
G1 X149.742 Y143.585 E0.03508
G1 X148.786 Y144.182 E0.03532
G1 X147.819 Y144.753 E0.03523
G1 X146.831 Y145.304 E0.03545
G1 X145.848 Y145.821 E0.03483
G1 X144.827 Y146.326 E0.03572
G1 X143.799 Y146.804 E0.03553
G1 X142.574 Y147.334 E0.04186
G1 X141.511 Y147.759 E0.03588
G1 X140.459 Y148.151 E0.03522
G1 X139.381 Y148.522 E0.03574
G1 X138.318 Y148.859 E0.03496
G1 X137.227 Y149.176 E0.03562
G1 X136.143 Y149.461 E0.03514
G1 X135.040 Y149.723 E0.03557
G1 X133.945 Y149.955 E0.03509
G1 X132.833 Y150.162 E0.03546
G1 X131.714 Y150.342 E0.03553
G1 X130.604 Y150.493 E0.03513
G1 X129.477 Y150.617 E0.03556
G1 X128.364 Y150.713 E0.03503
G1 X127.228 Y150.782 E0.03567
G1 X126.113 Y150.823 E0.03499
G1 X124.973 Y150.836 E0.03575
G1 X123.863 Y150.822 E0.03480
G1 X122.726 Y150.780 E0.03567
G1 X121.607 Y150.711 E0.03517
G1 X120.472 Y150.612 E0.03572
G1 X119.145 Y150.461 E0.04186
G1 X118.023 Y150.302 E0.03554
G1 X116.889 Y150.113 E0.03606
G1 X115.762 Y149.896 E0.03598
G1 X114.666 Y149.656 E0.03516
G1 X113.573 Y149.389 E0.03528
G1 X112.488 Y149.096 E0.03524
G1 X111.391 Y148.770 E0.03587
G1 X110.123 Y148.355 E0.04186
G1 X109.056 Y147.974 E0.03549
G1 X107.993 Y147.565 E0.03573
G1 X106.935 Y147.126 E0.03591
G1 X105.905 Y146.670 E0.03531
G1 X104.880 Y146.184 E0.03558
G1 X103.876 Y145.679 E0.03525
G1 X102.867 Y145.139 E0.03586
G1 X101.708 Y144.477 E0.04186
G1 X100.739 Y143.889 E0.03554
G1 X99.784 Y143.277 E0.03557
G1 X98.848 Y142.644 E0.03544
G1 X97.893 Y141.962 E0.03677
G1 X96.828 Y141.157 E0.04187
G1 X95.938 Y140.445 E0.03572
G1 X95.082 Y139.726 E0.03505
G1 X94.236 Y138.978 E0.03543
G1 X93.413 Y138.215 E0.03517
G1 X92.597 Y137.419 E0.03574
G1 X91.818 Y136.622 E0.03496
G1 X90.631 Y135.327 E0.05508
G1 X89.413 Y133.889 E0.05909
G1 X88.167 Y132.282 E0.06374
G1 X87.073 Y130.739 E0.05930
G1 X86.128 Y129.288 E0.05430
G1 X85.116 Y127.589 E0.06200
G1 X84.176 Y125.842 E0.06221
G1 X83.337 Y124.110 E0.06032
G1 X82.646 Y122.524 E0.05425
G1 X81.932 Y120.688 E0.06179
G1 X81.197 Y118.497 E0.07246
G1 X80.826 Y118.555 E0.01177
G1 X79.650 Y118.463 E0.03701
G1 X78.056 Y117.819 E0.05390
G1 X77.099 Y117.017 E0.03915
G1 X76.413 Y115.992 E0.03867
G1 X76.006 Y114.520 E0.04789
G1 X76.006 Y112.159 E0.07402
G1 X75.501 Y111.873 E0.01819
G1 X74.477 Y110.851 E0.04538
G1 X74.003 Y110.009 E0.03028
G1 X73.732 Y109.071 E0.03061
G1 X73.696 Y97.150 E0.37376
G1 X74.003 Y95.893 E0.04058
G1 X74.565 Y94.888 E0.03609
G1 X75.581 Y93.884 E0.04479
G1 X76.611 Y93.332 E0.03665
G1 X77.667 Y93.075 E0.03408
G1 X80.758 Y93.059 E0.09691
G1 X80.981 Y92.221 E0.02718
G1 X81.306 Y91.150 E0.03508
G1 X81.665 Y90.064 E0.03588
G1 X82.334 Y88.250 E0.06060
G1 X82.762 Y87.198 E0.03562
G1 X83.219 Y86.150 E0.03584
G1 X84.054 Y84.399 E0.06084
G1 X84.577 Y83.391 E0.03559
G1 X85.122 Y82.402 E0.03542
G1 X85.681 Y81.443 E0.03480
G1 X86.273 Y80.480 E0.03544
G1 X86.887 Y79.537 E0.03527
G1 X87.528 Y78.602 E0.03554
G1 X88.191 Y77.686 E0.03545
G1 X88.871 Y76.792 E0.03523
G1 X89.566 Y75.924 E0.03485
G1 X90.288 Y75.066 E0.03518
G1 X91.612 Y73.596 E0.06202
G1 X92.385 Y72.794 E0.03492
G1 X93.187 Y72.001 E0.03537
G1 X94.641 Y70.659 E0.06204
G1 X95.491 Y69.926 E0.03521
G1 X96.360 Y69.213 E0.03523
G1 X97.238 Y68.527 E0.03494
G1 X98.132 Y67.864 E0.03490
G1 X99.575 Y66.862 E0.05507
G1 X101.157 Y65.853 E0.05883
G1 X102.855 Y64.868 E0.06155
G1 X104.355 Y64.076 E0.05320
G1 X105.909 Y63.329 E0.05404
G1 X107.496 Y62.637 E0.05430
G1 X109.076 Y62.019 E0.05319
G1 X110.916 Y61.381 E0.06105
G1 X112.728 Y60.837 E0.05932
G1 X114.391 Y60.408 E0.05385
G1 X116.105 Y60.035 E0.05500
G1 X117.949 Y59.709 E0.05871
G1 X119.716 Y59.469 E0.05592
G1 X121.580 Y59.291 E0.05870
G1 X123.310 Y59.195 E0.05433
G1 X125.049 Y59.164 E0.05455
G1 X126.997 Y59.207 E0.06108
G1 X128.951 Y59.334 E0.06139
G1 X130.050 Y59.443 E0.03465
G1 X131.151 Y59.578 E0.03476
G1 X133.110 Y59.887 E0.06218
G1 X135.046 Y60.278 E0.06195
G1 X136.971 Y60.754 E0.06216
G1 X138.033 Y61.056 E0.03462
G1 X139.093 Y61.384 E0.03479
G1 X140.926 Y62.019 E0.06082
G1 X142.803 Y62.762 E0.06328
G1 X144.639 Y63.584 E0.06309
G1 X146.375 Y64.452 E0.06085
G1 X147.345 Y64.979 E0.03461
G1 X148.307 Y65.532 E0.03480
G1 X149.985 Y66.572 E0.06189
G1 X151.626 Y67.690 E0.06228
G1 X153.217 Y68.878 E0.06225
G1 X154.746 Y70.126 E0.06189
G1 X155.813 Y71.066 E0.04458
G1 X157.040 Y72.221 E0.05284
G1 X158.200 Y73.397 E0.05178
G1 X159.326 Y74.624 E0.05224
G1 X160.420 Y75.907 E0.05286
G1 X161.459 Y77.220 E0.05248
