; generated by PrusaSlicer 2.1.1+win64 on 2020-02-10 at 12:06:04 UTC

; 

; external perimeters extrusion width = 0.60mm
; perimeters extrusion width = 0.50mm
; infill extrusion width = 0.50mm
; solid infill extrusion width = 0.50mm
; top infill extrusion width = 0.45mm
; support material extrusion width = 0.38mm
; first layer extrusion width = 0.42mm

M73 P0 R73
M73 Q0 S74
M201 X1000 Y1000 Z1000 E5000 ; sets maximum accelerations, mm/sec^2
M203 X200 Y200 Z12 E120 ; sets maximum feedrates, mm/sec
M204 P1250 R1250 T1250 ; sets acceleration (P, T) and retract acceleration (R), mm/sec^2
M205 X8.00 Y8.00 Z0.40 E1.50 ; sets the jerk limits, mm/sec
M205 S0 T0 ; sets the minimum extruding and travel feed rate, mm/sec
M107
M862.3 P "MK3S" ; printer model check
M862.1 P0.4 ; nozzle diameter check
M115 U3.8.1 ; tell printer latest fw version
G90 ; use absolute coordinates
M83 ; extruder relative mode
M104 S215 ; set extruder temp
M140 S60 ; set bed temp
M190 S60 ; wait for bed temp
M109 S215 ; wait for extruder temp
G28 W ; home all without mesh bed level
G80 ; mesh bed leveling
G1 Y-3.0 F1000.0 ; go outside print area
G92 E0.0
G1 X60.0 E9.0 F1000.0 ; intro line
M73 Q0 S74
M73 P0 R73
G1 X100.0 E12.5 F1000.0 ; intro line
G92 E0.0
M221 S95
G21 ; set units to millimeters
G90 ; use absolute coordinates
M83 ; use relative distances for extrusion
M900 K30 ; Filament gcode
;BEFORE_LAYER_CHANGE
G92 E0.0
;0.2


G1 E-0.80000 F2100.00000
G1 Z0.600 F10800.000
;AFTER_LAYER_CHANGE
;0.2
G1 X174.403 Y135.469
G1 Z0.200
G1 E0.80000 F2100.00000
M204 S1000
G1 F1200
G1 X173.137 Y136.117 E0.04460
G1 X135.352 Y149.062 E1.25229
G1 X133.176 Y149.750 E0.07157
G1 X129.583 Y150.638 E0.11605
G1 X125.912 Y151.240 E0.11665
G1 X122.210 Y151.548 E0.11647
G1 X118.484 Y151.559 E0.11684
G1 X115.661 Y151.368 E0.08869
G1 X113.108 Y151.046 E0.08069
G1 X110.562 Y150.581 E0.08115
G1 X108.044 Y149.974 E0.08120
G1 X105.340 Y149.154 E0.08861
G1 X102.911 Y148.260 E0.08116
G1 X100.306 Y147.124 E0.08911
G1 X97.996 Y145.953 E0.08120
G1 X95.768 Y144.664 E0.08072
G1 X93.604 Y143.246 E0.08110
G1 X91.334 Y141.563 E0.08861
G1 X89.336 Y139.892 E0.08168
G1 X87.277 Y137.955 E0.08861
G1 X85.503 Y136.081 E0.08093
G1 X83.668 Y133.902 E0.08932
G1 X82.116 Y131.823 E0.08132
G1 X80.393 Y129.191 E0.09867
G1 X78.732 Y126.217 E0.10679
G1 X77.391 Y123.362 E0.09891
G1 X76.254 Y120.442 E0.09824
G1 X75.310 Y117.434 E0.09884
G1 X74.573 Y114.373 E0.09875
G1 X74.045 Y111.279 E0.09841
G1 X73.726 Y108.140 E0.09891
G1 X73.620 Y104.984 E0.09901
G1 X73.745 Y101.598 E0.10625
G1 X74.083 Y98.450 E0.09924
G1 X74.627 Y95.367 E0.09816
G1 X75.383 Y92.306 E0.09886
G1 X76.341 Y89.313 E0.09856
G1 X77.499 Y86.388 E0.09862
G1 X78.856 Y83.542 E0.09885
G1 X80.395 Y80.805 E0.09849
G1 X82.126 Y78.163 E0.09902
G1 X84.025 Y75.653 E0.09869
G1 X86.254 Y73.100 E0.10625
G1 X88.499 Y70.868 E0.09926
G1 X90.875 Y68.804 E0.09869
G1 X93.385 Y66.908 E0.09863
G1 X96.013 Y65.186 E0.09853
G1 X98.755 Y63.644 E0.09864
G1 X101.607 Y62.285 E0.09904
G1 X104.530 Y61.127 E0.09859
G1 X107.769 Y60.101 E0.10651
G1 X110.838 Y59.362 E0.09899
G1 X113.941 Y58.833 E0.09867
G1 X117.071 Y58.515 E0.09865
G1 X120.217 Y58.409 E0.09871
G1 X123.638 Y58.536 E0.10734
G1 X127.032 Y58.911 E0.10705
G1 X130.156 Y59.483 E0.09959
G1 X133.463 Y60.334 E0.10706
G1 X136.698 Y61.424 E0.10702
G1 X139.627 Y62.648 E0.09955
G1 X142.678 Y64.184 E0.10708
G1 X145.609 Y65.941 E0.10716
G1 X148.887 Y68.280 E0.12626
G1 X152.130 Y71.061 E0.13393
G1 X175.556 Y93.948 E1.02687
G1 X176.153 Y94.652 E0.02897
G1 X176.705 Y95.663 E0.03610
G1 X177.014 Y96.766 E0.03593
G1 X178.810 Y111.084 E0.45243
G1 X178.821 Y129.378 E0.57360
G1 X178.735 Y130.114 E0.02322
G1 X178.542 Y130.835 E0.02340
G1 X178.249 Y131.514 E0.02322
G1 X177.856 Y132.149 E0.02340
G1 X177.264 Y132.829 E0.02828
G1 X174.447 Y135.429 E0.12019
G1 F8640
G1 X173.137 Y136.117 E-0.34178
G1 X171.423 Y136.704 E-0.41822
G1 E-0.04000 F2100.00000
G1 Z0.800 F10800.000
G1 X164.741 Y92.684
G1 Z0.200
G1 E0.80000 F2100.00000
G1 F1200
G1 X172.608 Y92.698 E0.24667
G1 X174.583 Y93.384 E0.06553
G1 X175.269 Y93.925 E0.02742
G1 X176.011 Y94.746 E0.03467
G1 X176.611 Y95.891 E0.04055
G1 X176.891 Y97.186 E0.04152
G1 X176.891 Y107.745 E0.33109
G1 X177.727 Y108.598 E0.03742
G1 X178.282 Y109.598 E0.03587
G1 X178.637 Y111.020 E0.04596
G1 X178.637 Y129.670 E0.58476
G1 X178.334 Y130.910 E0.04000
G1 X177.748 Y131.959 E0.03770
G1 X176.622 Y133.059 E0.04933
G1 X175.918 Y133.434 E0.02501
G1 X175.372 Y134.301 E0.03214
G1 X174.193 Y135.412 E0.05078
G1 X173.237 Y135.894 E0.03358
G1 X171.927 Y136.209 E0.04225
G1 X156.652 Y136.209 E0.47893
G1 X154.786 Y135.656 E0.06102
G1 X153.465 Y137.092 E0.06119
G1 X152.477 Y138.085 E0.04391
G1 X151.442 Y139.063 E0.04466
G1 X150.386 Y140.002 E0.04428
G1 X149.298 Y140.911 E0.04446
G1 X148.180 Y141.789 E0.04460
G1 X147.047 Y142.623 E0.04408
G1 X145.880 Y143.429 E0.04448
G1 X144.704 Y144.189 E0.04390
G1 X143.482 Y144.927 E0.04477
G1 X142.256 Y145.616 E0.04408
G1 X141.005 Y146.271 E0.04429
G1 X139.939 Y146.791 E0.03719
G1 X138.662 Y147.370 E0.04396
G1 X137.364 Y147.912 E0.04409
G1 X136.050 Y148.414 E0.04410
G1 X134.673 Y148.892 E0.04573
G1 X133.332 Y149.312 E0.04405
G1 X131.966 Y149.693 E0.04445
G1 X130.589 Y150.033 E0.04449
G1 X129.204 Y150.330 E0.04440
G1 X127.831 Y150.581 E0.04375
G1 X126.435 Y150.792 E0.04427
G1 X125.034 Y150.961 E0.04427
G1 X123.628 Y151.087 E0.04426
G1 X122.212 Y151.170 E0.04445
G1 X120.802 Y151.210 E0.04424
G1 X119.360 Y151.206 E0.04523
G1 X117.982 Y151.160 E0.04322
G1 X116.802 Y151.088 E0.03706
G1 X115.642 Y150.987 E0.03652
G1 X114.277 Y150.831 E0.04306
G1 X113.110 Y150.665 E0.03696
G1 X111.739 Y150.430 E0.04362
G1 X110.368 Y150.153 E0.04386
G1 X108.987 Y149.830 E0.04446
G1 X107.847 Y149.529 E0.03697
G1 X106.524 Y149.140 E0.04325
G1 X105.214 Y148.712 E0.04320
G1 X104.099 Y148.314 E0.03710
G1 X103.014 Y147.895 E0.03649
G1 X101.720 Y147.353 E0.04398
G1 X100.436 Y146.769 E0.04422
G1 X99.169 Y146.145 E0.04427
G1 X97.913 Y145.478 E0.04460
G1 X96.730 Y144.804 E0.04271
G1 X95.694 Y144.174 E0.03800
G1 X94.537 Y143.426 E0.04320
G1 X93.402 Y142.642 E0.04325
G1 X92.450 Y141.946 E0.03696
G1 X91.365 Y141.105 E0.04306
G1 X90.457 Y140.361 E0.03682
G1 X89.569 Y139.594 E0.03679
G1 X88.541 Y138.656 E0.04362
G1 X87.538 Y137.682 E0.04384
G1 X86.560 Y136.675 E0.04401
G1 X85.618 Y135.643 E0.04381
G1 X84.847 Y134.751 E0.03698
G1 X84.106 Y133.847 E0.03665
G1 X83.235 Y132.721 E0.04463
G1 X82.292 Y131.416 E0.05048
G1 X81.449 Y130.163 E0.04734
G1 X80.555 Y128.730 E0.05298
G1 X79.722 Y127.278 E0.05248
G1 X78.946 Y125.805 E0.05220
G1 X78.207 Y124.272 E0.05336
G1 X77.534 Y122.730 E0.05276
G1 X76.994 Y121.369 E0.04590
G1 X76.499 Y119.997 E0.04574
G1 X75.989 Y118.422 E0.05190
G1 X75.584 Y117.007 E0.04616
G1 X75.178 Y115.381 E0.05253
G1 X74.830 Y113.733 E0.05282
G1 X74.547 Y112.108 E0.05170
G1 X74.340 Y110.613 E0.04733
G1 X74.168 Y108.968 E0.05187
G1 X74.056 Y107.316 E0.05192
G1 X74.005 Y105.846 E0.04611
G1 X74.005 Y104.158 E0.05292
G1 X74.055 Y102.688 E0.04611
G1 X74.167 Y101.043 E0.05169
G1 X74.316 Y99.580 E0.04612
G1 X74.543 Y97.920 E0.05253
G1 X74.829 Y96.272 E0.05244
G1 X75.173 Y94.641 E0.05227
G1 X75.587 Y92.985 E0.05352
G1 X76.056 Y91.360 E0.05303
G1 X76.505 Y89.985 E0.04535
G1 X76.995 Y88.627 E0.04529
G1 X77.622 Y87.059 E0.05294
G1 X78.198 Y85.750 E0.04485
G1 X78.911 Y84.264 E0.05167
G1 X79.592 Y82.960 E0.04612
G1 X80.423 Y81.492 E0.05292
G1 X81.192 Y80.238 E0.04611
G1 X82.112 Y78.844 E0.05236
G1 X83.083 Y77.482 E0.05244
G1 X84.111 Y76.147 E0.05283
G1 X85.186 Y74.851 E0.05279
G1 X86.147 Y73.769 E0.04538
G1 X87.139 Y72.721 E0.04524
G1 X88.335 Y71.539 E0.05272
G1 X89.564 Y70.411 E0.05231
G1 X90.675 Y69.457 E0.04593
G1 X91.786 Y68.562 E0.04470
G1 X93.175 Y67.520 E0.05445
G1 X94.566 Y66.555 E0.05308
G1 X95.992 Y65.641 E0.05311
G1 X97.392 Y64.813 E0.05102
G1 X98.717 Y64.089 E0.04734
G1 X100.202 Y63.343 E0.05209
G1 X101.701 Y62.656 E0.05170
G1 X103.094 Y62.073 E0.04736
G1 X104.673 Y61.477 E0.05291
G1 X106.029 Y61.016 E0.04491
G1 X107.644 Y60.528 E0.05289
G1 X109.028 Y60.160 E0.04491
G1 X110.682 Y59.780 E0.05323
G1 X112.304 Y59.468 E0.05178
G1 X113.948 Y59.213 E0.05217
G1 X115.634 Y59.014 E0.05323
G1 X117.062 Y58.894 E0.04491
G1 X118.747 Y58.810 E0.05290
G1 X120.258 Y58.787 E0.04740
G1 X121.911 Y58.818 E0.05184
G1 X123.565 Y58.908 E0.05191
G1 X125.069 Y59.043 E0.04737
G1 X126.755 Y59.252 E0.05325
G1 X128.427 Y59.523 E0.05312
G1 X130.094 Y59.856 E0.05331
G1 X131.750 Y60.250 E0.05338
G1 X133.386 Y60.704 E0.05322
G1 X134.752 Y61.134 E0.04491
G1 X136.354 Y61.698 E0.05325
G1 X137.930 Y62.319 E0.05313
G1 X139.495 Y63.002 E0.05355
G1 X141.015 Y63.734 E0.05290
G1 X142.508 Y64.521 E0.05290
G1 X143.976 Y65.365 E0.05309
G1 X145.412 Y66.262 E0.05309
G1 X146.363 Y66.898 E0.03587
G1 X147.294 Y67.554 E0.03571
G1 X148.206 Y68.231 E0.03560
G1 X149.096 Y68.926 E0.03542
G1 X149.972 Y69.645 E0.03552
G1 X150.827 Y70.383 E0.03542
G1 X151.672 Y71.149 E0.03575
G1 X152.483 Y71.921 E0.03512
G1 X153.294 Y72.732 E0.03595
G1 X154.079 Y73.557 E0.03572
G1 X154.852 Y74.412 E0.03613
G1 X155.731 Y75.437 E0.04234
G1 X156.463 Y76.339 E0.03643
G1 X157.160 Y77.243 E0.03576
G1 X157.829 Y78.157 E0.03552
G1 X158.475 Y79.085 E0.03546
G1 X159.107 Y80.044 E0.03600
G1 X159.706 Y81.003 E0.03547
G1 X160.279 Y81.974 E0.03534
G1 X160.833 Y82.965 E0.03559
G1 X161.359 Y83.964 E0.03542
G1 X161.872 Y84.999 E0.03620
G1 X162.351 Y86.029 E0.03560
G1 X162.893 Y87.282 E0.04283
G1 X163.322 Y88.353 E0.03618
G1 X163.717 Y89.416 E0.03553
G1 X164.087 Y90.489 E0.03559
G1 X164.427 Y91.562 E0.03530
G1 X164.725 Y92.626 E0.03465
G1 X164.455 Y93.061 F10800.000
G1 F1200
G1 X172.516 Y93.065 E0.25275
G1 X174.376 Y93.701 E0.06161
G1 X175.002 Y94.192 E0.02495
G1 X175.689 Y94.944 E0.03196
G1 X176.249 Y95.998 E0.03740
G1 X176.514 Y97.206 E0.03879
G1 X176.514 Y107.901 E0.33533
G1 X177.410 Y108.804 E0.03987
G1 X177.940 Y109.759 E0.03426
G1 X178.260 Y111.043 E0.04149
G1 X178.260 Y129.647 E0.58330
G1 X177.975 Y130.793 E0.03703
G1 X177.433 Y131.749 E0.03445
G1 X176.381 Y132.768 E0.04593
G1 X175.608 Y133.170 E0.02731
G1 X175.531 Y133.353 E0.00623
G1 X175.096 Y134.043 E0.02558
G1 X173.955 Y135.118 E0.04916
G1 X173.127 Y135.533 E0.02903
G1 X171.904 Y135.832 E0.03948
G1 X156.680 Y135.832 E0.47733
G1 X155.056 Y135.343 E0.05318
G1 X154.731 Y135.138 E0.01203
G1 X154.156 Y135.801 E0.02753
G1 X153.196 Y136.827 E0.04405
G1 X152.216 Y137.813 E0.04358
G1 X151.189 Y138.783 E0.04430
G1 X150.138 Y139.718 E0.04410
G1 X149.063 Y140.616 E0.04391
G1 X147.954 Y141.487 E0.04423
G1 X146.826 Y142.318 E0.04390
G1 X145.668 Y143.117 E0.04412
G1 X144.502 Y143.871 E0.04354
G1 X143.294 Y144.600 E0.04423
G1 X142.074 Y145.286 E0.04390
G1 X140.832 Y145.936 E0.04394
G1 X139.780 Y146.449 E0.03670
G1 X138.514 Y147.024 E0.04361
G1 X137.222 Y147.563 E0.04390
G1 X135.919 Y148.061 E0.04373
G1 X134.557 Y148.533 E0.04518
G1 X133.227 Y148.949 E0.04369
G1 X131.868 Y149.329 E0.04427
G1 X130.507 Y149.665 E0.04395
G1 X129.133 Y149.960 E0.04404
G1 X127.772 Y150.208 E0.04340
G1 X126.387 Y150.418 E0.04390
G1 X124.991 Y150.586 E0.04409
G1 X123.603 Y150.711 E0.04372
G1 X122.193 Y150.793 E0.04427
G1 X120.794 Y150.833 E0.04387
G1 X119.364 Y150.829 E0.04486
G1 X117.997 Y150.783 E0.04286
G1 X116.828 Y150.711 E0.03674
G1 X115.682 Y150.612 E0.03605
G1 X114.323 Y150.457 E0.04290
G1 X113.171 Y150.293 E0.03647
G1 X111.805 Y150.059 E0.04345
G1 X110.445 Y149.784 E0.04350
G1 X109.076 Y149.463 E0.04411
G1 X107.951 Y149.166 E0.03648
G1 X106.633 Y148.779 E0.04308
G1 X105.333 Y148.355 E0.04285
G1 X104.229 Y147.960 E0.03678
G1 X103.157 Y147.546 E0.03602
G1 X101.873 Y147.009 E0.04363
G1 X100.600 Y146.429 E0.04386
G1 X99.344 Y145.811 E0.04391
G1 X98.097 Y145.149 E0.04424
G1 X96.919 Y144.477 E0.04254
G1 X95.896 Y143.856 E0.03751
G1 X94.749 Y143.114 E0.04285
G1 X93.618 Y142.334 E0.04308
G1 X92.679 Y141.647 E0.03647
G1 X91.598 Y140.809 E0.04290
G1 X90.698 Y140.071 E0.03650
G1 X89.821 Y139.314 E0.03632
G1 X88.797 Y138.379 E0.04345
G1 X87.802 Y137.414 E0.04348
G1 X86.833 Y136.415 E0.04365
G1 X85.898 Y135.391 E0.04345
G1 X85.137 Y134.510 E0.03651
G1 X84.403 Y133.614 E0.03633
G1 X83.539 Y132.498 E0.04426
G1 X82.599 Y131.198 E0.05028
G1 X81.767 Y129.961 E0.04673
G1 X80.880 Y128.539 E0.05256
G1 X80.054 Y127.099 E0.05205
G1 X79.281 Y125.632 E0.05198
G1 X78.549 Y124.111 E0.05293
G1 X77.881 Y122.582 E0.05233
G1 X77.347 Y121.238 E0.04532
G1 X76.854 Y119.872 E0.04554
G1 X76.349 Y118.309 E0.05150
G1 X75.949 Y116.912 E0.04556
G1 X75.545 Y115.293 E0.05233
G1 X75.201 Y113.665 E0.05218
G1 X74.919 Y112.047 E0.05150
G1 X74.714 Y110.571 E0.04673
G1 X74.544 Y108.939 E0.05145
G1 X74.432 Y107.293 E0.05171
G1 X74.382 Y105.843 E0.04551
G1 X74.382 Y104.168 E0.05252
G1 X74.432 Y102.711 E0.04572
G1 X74.543 Y101.078 E0.05129
G1 X74.690 Y99.628 E0.04572
G1 X74.915 Y97.981 E0.05210
G1 X75.199 Y96.347 E0.05201
G1 X75.542 Y94.722 E0.05206
G1 X75.952 Y93.080 E0.05308
G1 X76.417 Y91.468 E0.05260
G1 X76.862 Y90.105 E0.04495
G1 X77.349 Y88.758 E0.04491
G1 X77.971 Y87.202 E0.05254
G1 X78.542 Y85.904 E0.04446
G1 X79.249 Y84.430 E0.05127
G1 X79.924 Y83.138 E0.04572
G1 X80.750 Y81.680 E0.05252
G1 X81.508 Y80.443 E0.04551
G1 X82.425 Y79.054 E0.05216
G1 X83.388 Y77.704 E0.05201
G1 X84.408 Y76.380 E0.05240
G1 X85.474 Y75.095 E0.05236
G1 X86.427 Y74.022 E0.04499
G1 X87.411 Y72.983 E0.04487
G1 X88.593 Y71.815 E0.05210
G1 X89.816 Y70.690 E0.05210
G1 X90.919 Y69.745 E0.04554
G1 X92.020 Y68.858 E0.04432
G1 X93.393 Y67.828 E0.05382
G1 X94.772 Y66.871 E0.05265
G1 X96.187 Y65.964 E0.05269
G1 X97.582 Y65.139 E0.05081
G1 X98.890 Y64.424 E0.04673
G1 X100.362 Y63.684 E0.05167
G1 X101.855 Y63.000 E0.05149
G1 X103.231 Y62.425 E0.04675
G1 X104.797 Y61.833 E0.05250
G1 X106.141 Y61.376 E0.04451
G1 X107.744 Y60.892 E0.05249
G1 X109.115 Y60.527 E0.04451
G1 X110.757 Y60.149 E0.05280
G1 X112.372 Y59.839 E0.05157
G1 X114.003 Y59.586 E0.05175
G1 X115.675 Y59.389 E0.05280
G1 X117.090 Y59.270 E0.04451
G1 X118.762 Y59.187 E0.05250
G1 X120.254 Y59.164 E0.04679
G1 X121.894 Y59.195 E0.05142
G1 X123.541 Y59.285 E0.05171
G1 X125.026 Y59.417 E0.04676
G1 X126.698 Y59.625 E0.05282
G1 X128.357 Y59.893 E0.05268
G1 X130.010 Y60.223 E0.05287
G1 X131.653 Y60.615 E0.05294
G1 X133.276 Y61.065 E0.05281
G1 X134.630 Y61.491 E0.04451
G1 X136.219 Y62.050 E0.05282
G1 X137.783 Y62.666 E0.05269
G1 X139.335 Y63.344 E0.05311
G1 X140.843 Y64.070 E0.05247
G1 X142.329 Y64.853 E0.05269
G1 X143.785 Y65.690 E0.05265
G1 X145.209 Y66.581 E0.05268
G1 X146.148 Y67.208 E0.03538
G1 X147.071 Y67.858 E0.03542
G1 X147.975 Y68.529 E0.03531
G1 X148.859 Y69.219 E0.03513
G1 X149.727 Y69.932 E0.03523
G1 X150.575 Y70.664 E0.03513
G1 X151.413 Y71.423 E0.03546
G1 X152.218 Y72.190 E0.03483
G1 X153.022 Y72.994 E0.03566
G1 X153.801 Y73.812 E0.03543
G1 X154.571 Y74.663 E0.03598
G1 X155.440 Y75.677 E0.04186
G1 X156.169 Y76.575 E0.03628
G1 X156.857 Y77.467 E0.03532
G1 X157.521 Y78.374 E0.03523
G1 X158.164 Y79.299 E0.03531
G1 X158.788 Y80.246 E0.03557
G1 X159.382 Y81.197 E0.03518
G1 X159.951 Y82.160 E0.03505
G1 X160.500 Y83.143 E0.03530
G1 X161.022 Y84.134 E0.03513
G1 X161.533 Y85.164 E0.03605
G1 X162.006 Y86.181 E0.03514
G1 X162.546 Y87.430 E0.04267
G1 X162.969 Y88.487 E0.03572
G1 X163.363 Y89.545 E0.03539
G1 X163.728 Y90.605 E0.03516
G1 X164.067 Y91.673 E0.03512
G1 X164.439 Y93.003 E0.04332
G1 X164.169 Y93.439 F10800.000
G1 F1200
G1 X172.426 Y93.432 E0.25889
G1 X174.170 Y94.018 E0.05768
G1 X174.734 Y94.458 E0.02244
G1 X175.394 Y95.180 E0.03068
G1 X175.903 Y96.150 E0.03433
G1 X176.137 Y97.226 E0.03454
G1 X176.137 Y108.057 E0.33957
G1 X177.123 Y109.050 E0.04388
G1 X177.597 Y109.918 E0.03102
G1 X177.883 Y111.066 E0.03709
G1 X177.883 Y129.623 E0.58183
G1 X177.616 Y130.674 E0.03401
G1 X177.120 Y131.537 E0.03120
G1 X176.141 Y132.475 E0.04253
G1 X175.307 Y132.898 E0.02931
G1 X175.201 Y133.171 E0.00918
G1 X174.818 Y133.787 E0.02274
G1 X173.759 Y134.795 E0.04584
G1 X173.015 Y135.173 E0.02617
G1 X171.881 Y135.454 E0.03664
G1 X156.709 Y135.454 E0.47570
G1 X155.197 Y134.992 E0.04957
G1 X154.670 Y134.634 E0.01997
G1 X153.878 Y135.546 E0.03787
G1 X152.926 Y136.563 E0.04367
