;Generated by Cura LulzBot Edition GCodeWriter Version: 3.6.21
;FLAVOR:Marlin
;TIME:7288
;Filament used: 3.28711m
;Layer height: 0.25
;Generated with Cura_SteamEngine 3.6.21
M82 ;absolute extrusion mode
;This G-Code has been generated specifically for the LulzBot Mini with standard extruder
M73 P0 ; clear GLCD progress bar
M75 ; Start GLCD Timer
G26 ; clear potential 'probe fail' condition
M107 ; disable fans
M420 S0 ; disable leveling matrix
G90 ; absolute positioning
M82 ; set extruder to absolute mode
G92 E0 ; set extruder position to 0
M140 S60.0 ; start bed heating up
G28 ; home all axes
G0 X0 Y187 Z156 F200 ; move away from endstops
M109 R140 ;
G1 E-30 F75 ; retract filament
M109 R140 ; wait for extruder to reach wiping temp
G1 X45 Y173 F11520 ; move above wiper pad
G1 Z0 F1200 ; push nozzle into wiper
G1 X42 Y173 Z-.5 F4000             ; wiping
G1 X52 Y171 Z-.5 F4000             ; wiping
G1 X42 Y173 Z0 F4000               ; wiping
G1 X52 Y171 F4000                  ; wiping
G1 X42 Y173 F4000                  ; wiping
G1 X52 Y171 F4000                  ; wiping
G1 X42 Y173 F4000                  ; wiping
G1 X52 Y171 F4000                  ; wiping
G1 X57 Y173 F4000                  ; wiping
G1 X77 Y171 F4000                  ; wiping
G1 X57 Y173 F4000                  ; wiping
G1 X77 Y171 F4000                  ; wiping
G1 X57 Y173 F4000                  ; wiping
G1 X87 Y171 F4000                  ; wiping
G1 X77 Y173 F4000                  ; wiping
G1 X97 Y171 F4000                  ; wiping
G1 X77 Y173 F4000                  ; wiping
G1 X97 Y171 F4000                  ; wiping
G1 X77 Y173 F4000                  ; wiping
G1 X97 Y171 F4000                  ; wiping
G1 X107 Y173 F4000                 ; wiping
G1 X97 Y171 F4000                  ; wiping
G1 X107 Y173 F4000                 ; wiping
G1 X97 Y171 F4000                  ; wiping
G1 X107 Y173 F4000                 ; wiping
G1 X112 Y171 Z-0.5 F1000           ; wiping
G1 Z10 ; raise extruder
G28 X0 Y0 ; home X and Y
G0 X0 Y187 F200 ; move away from endstops
M109 R140 ; wait for extruder to reach probe temp
M204 S300 ; set probing acceleration
G29       ; start auto-leveling sequence
M420 S1   ; enable leveling matrix
M425 Z	  ; use measured Z backlash for compensation
M425 Z F0 ; turn off measured Z backlash compensation. (if activated in the quality settings, this command will automatically be ignored)
M204 S2000 ; restore standard acceleration
G28 X0 Y0 ; re-home to account for build variance of earlier mini builds
G0 X0 Y187 F200 ; move away from endstops
G0 Y152 F4000 ; move in front of wiper pad
G4 S1 ; pause
M400 ; wait for moves to finish
M117 Heating... ; progress indicator message on LCD
M109 R215  ; wait for extruder to reach printing temp
M190 R60.0 ; wait for bed to reach printing temp
G1 Z2 E0 F75 ; prime tiny bit of filament into the nozzle
M117 Mini Printing... ; progress indicator message on LCD

M221 S100 T0
G92 E0
G1 F600 E-1.5
;LAYER_COUNT:120
;LAYER:0
M107
G0 F2625 X52.074 Y52.082 Z0.425
;TYPE:SKIRT
G1 F600 E0
G1 F900 X49.762 Y54.634 E0.11471
G1 X48.549 Y56.269 E0.18252
G1 X52.007 Y57.527 E0.30509
G1 X52.571 Y57.775 E0.32562
G1 X53.099 Y58.094 E0.34616
G1 X53.58 Y58.478 E0.36667
G1 X54.008 Y58.921 E0.38718
G1 X54.375 Y59.416 E0.40771
G1 X54.699 Y60.006 E0.43013
G1 X54.785 Y60.193 E0.43699
G1 X55.005 Y60.769 E0.45753
G1 X55.149 Y61.368 E0.47805
G1 X55.215 Y61.98 E0.49855
G1 X55.201 Y62.596 E0.51908
G1 X55.107 Y63.205 E0.5396
G1 X54.933 Y63.802 E0.56032
G1 X51.614 Y72.925 E0.88369
G1 X51.366 Y73.489 E0.90422
G1 X51.047 Y74.016 E0.92474
G1 X50.663 Y74.498 E0.94526
G1 X50.22 Y74.926 E0.96578
G1 X49.725 Y75.293 E0.98631
G1 X49.135 Y75.617 E1.00873
G1 X48.948 Y75.703 E1.01559
G1 X48.372 Y75.923 E1.03613
G1 X47.773 Y76.067 E1.05665
G1 X47.161 Y76.133 E1.07715
G1 X46.545 Y76.119 E1.09768
G1 X45.936 Y76.025 E1.1182
G1 X45.339 Y75.851 E1.13892
G1 X41.859 Y74.585 E1.26227
G1 X41.798 Y75.193 E1.28262
G1 X41.696 Y75.801 E1.30316
G1 X41.517 Y76.39 E1.32366
G1 X41.263 Y76.952 E1.34421
G1 X41.229 Y77.007 E1.34636
G1 X41.386 Y77.298 E1.35738
G1 X41.607 Y77.873 E1.3779
G1 X41.752 Y78.472 E1.39842
G1 X41.798 Y78.807 E1.40969
G1 X42.138 Y82.175 E1.52245
G1 X42.81 Y85.555 E1.63724
G1 X43.833 Y88.935 E1.75487
G1 X44.413 Y90.432 E1.80835
G1 X45.917 Y93.614 E1.92559
G1 X47.69 Y96.573 E2.04049
G1 X49.758 Y99.361 E2.15612
G1 X52.086 Y101.928 E2.27156
G1 X52.36 Y102.177 E2.28389
G1 X60.002 Y88.941 E2.79299
G1 X60.344 Y88.429 E2.8135
G1 X60.75 Y87.965 E2.83404
G1 X61.212 Y87.557 E2.85457
G1 X61.723 Y87.213 E2.87509
G1 X62.274 Y86.938 E2.8956
G1 X62.899 Y86.724 E2.91761
G1 X63.099 Y86.671 E2.9245
G1 X63.704 Y86.553 E2.94503
G1 X64.319 Y86.513 E2.96556
G1 X64.933 Y86.553 E2.98606
G1 X65.538 Y86.673 E3.00661
G1 X66.122 Y86.87 E3.02714
G1 X66.691 Y87.149 E3.04825
G1 X73.365 Y91.002 E3.30495
G1 X73.877 Y91.344 E3.32546
G1 X74.341 Y91.75 E3.34599
G1 X74.749 Y92.212 E3.36653
G1 X75.093 Y92.723 E3.38704
G1 X75.368 Y93.274 E3.40756
G1 X75.582 Y93.899 E3.42956
G1 X75.635 Y94.099 E3.43645
G1 X75.753 Y94.704 E3.45699
G1 X75.793 Y95.319 E3.47752
G1 X75.753 Y95.933 E3.49801
G1 X75.633 Y96.538 E3.51856
G1 X75.436 Y97.122 E3.53909
G1 X75.157 Y97.691 E3.5602
G1 X67.525 Y110.911 E4.06868
G1 X68.421 Y111.183 E4.09987
G1 X71.842 Y111.865 E4.21606
G1 X73.271 Y112.005 E4.26389
G1 X72.632 Y108.381 E4.38647
G1 X72.565 Y107.769 E4.40698
G1 X72.577 Y107.153 E4.4275
G1 X72.669 Y106.544 E4.44802
G1 X72.839 Y105.951 E4.46857
G1 X73.085 Y105.386 E4.48909
G1 X73.431 Y104.815 E4.51133
G1 X73.549 Y104.648 E4.51814
G1 X73.936 Y104.169 E4.53866
G1 X74.382 Y103.744 E4.55918
G1 X74.88 Y103.38 E4.57973
G1 X75.42 Y103.084 E4.60024
G1 X75.994 Y102.861 E4.62075
G1 X76.602 Y102.711 E4.64161
G1 X86.164 Y101.023 E4.96505
G1 X86.777 Y100.956 E4.98559
G1 X87.393 Y100.968 E5.00611
G1 X88.002 Y101.06 E5.02663
G1 X88.594 Y101.23 E5.04715
G1 X89.159 Y101.475 E5.06766
G1 X89.731 Y101.822 E5.08995
G1 X89.898 Y101.94 E5.09676
G1 X90.377 Y102.327 E5.11727
G1 X90.802 Y102.773 E5.13779
G1 X91.166 Y103.271 E5.15834
G1 X91.462 Y103.811 E5.17885
G1 X91.685 Y104.385 E5.19936
G1 X91.835 Y104.993 E5.22022
G1 X92.476 Y108.622 E5.34298
G1 X93.627 Y108.078 E5.38538
G1 X96.58 Y106.306 E5.5001
G1 X99.359 Y104.244 E5.61537
G1 X101.926 Y101.918 E5.73076
G1 X104.242 Y99.362 E5.84565
G1 X106.308 Y96.576 E5.96119
G1 X108.085 Y93.609 E6.07639
G1 X109.563 Y90.482 E6.1916
G1 X110.724 Y87.241 E6.30628
G1 X111.098 Y85.75 E6.35748
G1 X95.84 Y85.75 E6.86573
G1 X95.225 Y85.71 E6.88626
G1 X94.621 Y85.591 E6.90677
G1 X94.037 Y85.394 E6.9273
G1 X93.483 Y85.124 E6.94783
G1 X92.969 Y84.784 E6.96835
G1 X92.481 Y84.359 E6.98991
G1 X92.335 Y84.213 E6.99679
G1 X91.929 Y83.75 E7.0173
G1 X91.586 Y83.238 E7.03783
G1 X91.312 Y82.686 E7.05836
G1 X91.111 Y82.104 E7.07887
G1 X90.988 Y81.5 E7.0994
G1 X90.944 Y80.854 E7.12097
G1 X90.944 Y73.146 E7.37772
G1 X90.984 Y72.531 E7.39825
G1 X91.103 Y71.927 E7.41876
G1 X91.3 Y71.343 E7.43929
G1 X91.57 Y70.789 E7.45982
G1 X91.91 Y70.275 E7.48035
G1 X92.335 Y69.787 E7.5019
G1 X92.481 Y69.641 E7.50878
G1 X92.944 Y69.235 E7.52929
G1 X93.456 Y68.892 E7.54982
G1 X94.008 Y68.618 E7.57035
G1 X94.59 Y68.417 E7.59086
G1 X95.194 Y68.294 E7.61139
G1 X95.84 Y68.25 E7.63296
G1 X111.096 Y68.25 E8.14114
G1 X110.724 Y66.765 E8.19214
G1 X109.559 Y63.508 E8.30736
G1 X109.187 Y62.72 E8.33639
G1 X106.361 Y65.091 E8.45927
G1 X105.864 Y65.455 E8.47979
G1 X105.325 Y65.753 E8.5003
G1 X104.751 Y65.977 E8.52083
G1 X104.153 Y66.126 E8.54135
G1 X103.541 Y66.196 E8.56187
G1 X102.897 Y66.184 E8.58333
G1 X102.69 Y66.166 E8.59025
G1 X102.08 Y66.073 E8.6108
G1 X101.489 Y65.902 E8.6313
G1 X100.924 Y65.656 E8.65183
G1 X100.396 Y65.338 E8.67236
G1 X99.913 Y64.955 E8.69289
G1 X99.462 Y64.487 E8.71454
G1 X93.223 Y57.052 E9.03785
G1 X92.859 Y56.556 E9.05834
G1 X92.562 Y56.016 E9.07887
G1 X92.337 Y55.442 E9.09941
G1 X92.188 Y54.845 E9.1199
G1 X92.118 Y54.232 E9.14045
G1 X92.13 Y53.588 E9.16191
G1 X92.148 Y53.381 E9.16883
G1 X92.241 Y52.771 E9.18938
G1 X92.412 Y52.18 E9.20988
G1 X92.658 Y51.615 E9.23041
G1 X92.976 Y51.087 E9.25094
G1 X93.359 Y50.604 E9.27147
G1 X93.827 Y50.153 E9.29312
G1 X96.674 Y47.764 E9.41692
G1 X96.6 Y47.708 E9.42001
G1 X93.597 Y45.908 E9.53664
G1 X90.483 Y44.439 E9.65133
G1 X87.253 Y43.281 E9.76562
G1 X83.77 Y42.408 E9.88523
G1 X82.219 Y42.141 E9.93766
G1 X78.725 Y41.798 E10.0546
G1 X75.271 Y41.798 E10.16966
G1 X71.808 Y42.141 E10.28558
G1 X68.421 Y42.815 E10.40061
G1 X67.524 Y43.088 E10.43184
G1 X75.157 Y56.309 E10.94037
G1 X75.429 Y56.861 E10.96086
G1 X75.628 Y57.445 E10.98142
G1 X75.75 Y58.049 E11.00194
G1 X75.793 Y58.663 E11.02244
G1 X75.756 Y59.278 E11.04297
G1 X75.635 Y59.901 E11.06411
G1 X75.582 Y60.101 E11.071
G1 X75.385 Y60.685 E11.09153
G1 X75.115 Y61.239 E11.11206
G1 X74.776 Y61.753 E11.13257
G1 X74.373 Y62.219 E11.15309
G1 X73.913 Y62.628 E11.17359
G1 X73.365 Y62.998 E11.19562
G1 X66.691 Y66.851 E11.45232
G1 X66.138 Y67.123 E11.47285
G1 X65.555 Y67.322 E11.49337
G1 X64.951 Y67.444 E11.5139
G1 X64.337 Y67.487 E11.5344
G1 X63.722 Y67.45 E11.55492
G1 X63.099 Y67.329 E11.57606
G1 X62.899 Y67.276 E11.58295
G1 X62.315 Y67.079 E11.60348
G1 X61.761 Y66.809 E11.62401
G1 X61.247 Y66.47 E11.64452
G1 X60.781 Y66.067 E11.66504
G1 X60.372 Y65.607 E11.68555
G1 X60.002 Y65.059 E11.70757
G1 X52.36 Y51.823 E12.21668
G1 X52.074 Y52.082 E12.22953
G0 F2625 X51.726 Y51.723
G1 F900 X49.376 Y54.315 E12.34608
G1 X47.748 Y56.51 E12.43711
G1 X51.836 Y57.997 E12.58201
G1 X52.369 Y58.233 E12.60143
G1 X52.864 Y58.54 E12.62083
G1 X53.313 Y58.912 E12.64025
G1 X53.706 Y59.342 E12.65966
G1 X54.038 Y59.822 E12.6791
G1 X54.244 Y60.215 E12.69388
G1 X54.33 Y60.402 E12.70073
G1 X54.537 Y60.947 E12.72015
G1 X54.667 Y61.515 E12.73956
G1 X54.718 Y62.096 E12.75899
G1 X54.69 Y62.678 E12.7784
G1 X54.581 Y63.25 E12.79779
G1 X54.463 Y63.631 E12.81108
G1 X51.144 Y72.754 E13.13446
G1 X50.908 Y73.287 E13.15387
G1 X50.601 Y73.782 E13.17328
G1 X50.229 Y74.231 E13.1927
G1 X49.799 Y74.624 E13.2121
G1 X49.32 Y74.956 E13.23152
G1 X48.926 Y75.162 E13.24633
G1 X48.739 Y75.248 E13.25318
G1 X48.194 Y75.455 E13.2726
G1 X47.626 Y75.585 E13.29201
G1 X47.045 Y75.636 E13.31144
G1 X46.463 Y75.608 E13.33085
G1 X45.891 Y75.499 E13.35025
G1 X45.51 Y75.381 E13.36353
G1 X41.426 Y73.895 E13.5083
G1 X41.3 Y75.143 E13.55008
G1 X41.202 Y75.717 E13.56948
G1 X41.027 Y76.273 E13.58889
G1 X40.776 Y76.799 E13.60831
G1 X40.647 Y76.996 E13.61615
G1 X40.703 Y77.076 E13.6194
G1 X40.971 Y77.593 E13.6388
G1 X41.166 Y78.142 E13.65821
G1 X41.3 Y78.858 E13.68247
G1 X41.642 Y82.237 E13.7956
G1 X42.324 Y85.676 E13.91239
G1 X43.361 Y89.098 E14.03149
G1 X43.956 Y90.636 E14.08643
G1 X45.471 Y93.841 E14.20451
G1 X47.28 Y96.861 E14.32178
G1 X49.372 Y99.68 E14.43871
G1 X51.732 Y102.282 E14.55572
G1 X52.483 Y102.964 E14.58952
G1 X60.435 Y89.191 E15.11928
G1 X60.761 Y88.707 E15.13872
G1 X61.149 Y88.273 E15.15811
G1 X61.593 Y87.896 E15.17751
G1 X62.085 Y87.583 E15.19693
G1 X62.615 Y87.34 E15.21635
G1 X63.027 Y87.208 E15.23077
G1 X63.227 Y87.155 E15.23766
G1 X63.8 Y87.044 E15.2571
G1 X64.381 Y87.014 E15.27648
G1 X64.962 Y87.062 E15.2959
G1 X65.531 Y87.19 E15.31532
G1 X66.076 Y87.395 E15.33472
G1 X66.441 Y87.582 E15.34838
G1 X73.115 Y91.435 E15.60508
G1 X73.598 Y91.761 E15.62449
G1 X74.033 Y92.149 E15.64391
G1 X74.41 Y92.593 E15.66331
G1 X74.723 Y93.085 E15.68274
G1 X74.966 Y93.614 E15.70213
G1 X75.098 Y94.027 E15.71657
G1 X75.151 Y94.227 E15.72346
G1 X75.262 Y94.8 E15.7429
G1 X75.292 Y95.381 E15.76228
G1 X75.244 Y95.962 E15.7817
G1 X75.116 Y96.531 E15.80113
G1 X74.911 Y97.076 E15.82053
G1 X74.724 Y97.441 E15.83419
G1 X66.777 Y111.208 E16.36369
G1 X68.292 Y111.666 E16.41641
G1 X71.766 Y112.359 E16.53441
G1 X73.879 Y112.567 E16.60514
G1 X73.125 Y108.294 E16.74967
G1 X73.063 Y107.715 E16.76907
G1 X73.081 Y107.132 E16.7885
G1 X73.179 Y106.558 E16.80789
G1 X73.354 Y106.002 E16.82731
G1 X73.604 Y105.476 E16.84671
G1 X73.839 Y105.103 E16.8614
G1 X73.957 Y104.936 E16.86821
G1 X74.325 Y104.485 E16.8876
G1 X74.752 Y104.088 E16.90702
G1 X75.228 Y103.752 E16.92643
G1 X75.747 Y103.486 E16.94585
G1 X76.296 Y103.292 E16.96525
G1 X76.689 Y103.204 E16.97866
G1 X86.251 Y101.516 E17.3021
G1 X86.831 Y101.454 E17.32153
G1 X87.413 Y101.472 E17.34093
G1 X87.988 Y101.57 E17.36036
G1 X88.543 Y101.745 E17.37974
G1 X89.07 Y101.995 E17.39917
G1 X89.443 Y102.23 E17.41386
G1 X89.61 Y102.348 E17.42067
G1 X90.061 Y102.716 E17.44006
G1 X90.458 Y103.143 E17.45948
G1 X90.794 Y103.619 E17.47889
G1 X91.06 Y104.138 E17.49831
G1 X91.254 Y104.687 E17.51771
G1 X91.342 Y105.08 E17.53112
G1 X92.096 Y109.354 E17.67569
G1 X93.855 Y108.523 E17.74049
G1 X96.861 Y106.72 E17.85725
G1 X99.684 Y104.625 E17.97436
G1 X102.274 Y102.277 E18.0908
G1 X104.624 Y99.685 E18.20735
G1 X106.73 Y96.844 E18.32515
G1 X108.524 Y93.849 E18.44144
G1 X110.028 Y90.667 E18.55868
G1 X111.201 Y87.392 E18.67456
G1 X111.738 Y85.25 E18.74811
G1 X95.84 Y85.25 E19.27768
G1 X95.259 Y85.21 E19.29708
G1 X94.688 Y85.091 E19.31651
G1 X94.139 Y84.895 E19.33593
G1 X93.623 Y84.626 E19.35531
G1 X93.147 Y84.288 E19.37476
G1 X92.835 Y84.005 E19.38879
G1 X92.689 Y83.859 E19.39567
G1 X92.306 Y83.42 E19.41507
G1 X91.987 Y82.932 E19.43449
G1 X91.737 Y82.406 E19.45389
G1 X91.562 Y81.85 E19.47331
G1 X91.465 Y81.275 E19.49273
G1 X91.444 Y80.854 E19.50678
G1 X91.444 Y73.146 E19.76353
G1 X91.484 Y72.565 E19.78293
G1 X91.603 Y71.994 E19.80236
G1 X91.799 Y71.445 E19.82178
G1 X92.068 Y70.929 E19.84116
G1 X92.406 Y70.453 E19.86061
G1 X92.689 Y70.141 E19.87464
G1 X92.835 Y69.995 E19.88152
G1 X93.274 Y69.612 E19.90092
G1 X93.762 Y69.293 E19.92034
G1 X94.288 Y69.043 E19.93974
G1 X94.844 Y68.868 E19.95916
G1 X95.419 Y68.771 E19.97858
G1 X95.84 Y68.75 E19.99262
G1 X111.737 Y68.75 E20.52216
G1 X111.203 Y66.616 E20.59544
G1 X110.023 Y63.319 E20.71208
G1 X109.362 Y61.921 E20.76359
G1 X106.04 Y64.708 E20.90803
G1 X105.569 Y65.051 E20.92744
G1 X105.055 Y65.326 E20.94686
G1 X104.509 Y65.529 E20.96626
G1 X103.94 Y65.655 E20.98568
G1 X103.359 Y65.702 E21.00509
G1 X102.94 Y65.686 E21.01906
G1 X102.733 Y65.668 E21.02598
G1 X102.157 Y65.578 E21.0454
G1 X101.599 Y65.41 E21.06481
G1 X101.069 Y65.167 E21.08424
G1 X100.578 Y64.854 E21.10363
G1 X100.134 Y64.477 E21.12303
G1 X99.845 Y64.166 E21.13717
G1 X93.606 Y56.731 E21.46048
G1 X93.263 Y56.26 E21.47989
G1 X92.988 Y55.746 E21.49931
G1 X92.785 Y55.2 E21.51871
G1 X92.659 Y54.631 E21.53812
G1 X92.612 Y54.05 E21.55754
G1 X92.628 Y53.631 E21.57151
G1 X92.646 Y53.424 E21.57843
G1 X92.736 Y52.848 E21.59785
G1 X92.904 Y52.29 E21.61726
G1 X93.147 Y51.76 E21.63668
G1 X93.46 Y51.269 E21.65608
G1 X93.837 Y50.825 E21.67548
G1 X94.148 Y50.536 E21.68962
G1 X97.481 Y47.739 E21.83456
G1 X96.881 Y47.294 E21.85944
G1 X93.833 Y45.467 E21.97781
G1 X90.672 Y43.975 E22.09425
G1 X87.402 Y42.803 E22.20996
G1 X83.874 Y41.919 E22.33111
G1 X82.295 Y41.647 E22.38448
G1 X78.744 Y41.298 E22.50334
G1 X75.242 Y41.298 E22.61999
G1 X71.741 Y41.644 E22.73718
G1 X68.301 Y42.33 E22.85402
G1 X66.776 Y42.792 E22.9071
G1 X74.724 Y56.559 E23.43662
G1 X74.98 Y57.083 E23.45605
G1 X75.162 Y57.636 E23.47544
G1 X75.266 Y58.209 E23.49484
G1 X75.292 Y58.792 E23.51428
G1 X75.237 Y59.372 E23.53368
G1 X75.151 Y59.773 E23.54734
G1 X75.098 Y59.973 E23.55424
G1 X74.911 Y60.524 E23.57362
G1 X74.649 Y61.045 E23.59304
G1 X74.319 Y61.526 E23.61248
G1 X73.927 Y61.956 E23.63186
G1 X73.479 Y62.329 E23.65128
G1 X73.115 Y62.565 E23.66573
G1 X66.441 Y66.418 E23.92243
G1 X65.917 Y66.674 E23.94185
G1 X65.364 Y66.856 E23.96125
G1 X64.791 Y66.96 E23.98065
G1 X64.208 Y66.986 E24.00008
G1 X63.628 Y66.931 E24.01949
G1 X63.227 Y66.845 E24.03315
G1 X63.027 Y66.792 E24.04004
G1 X62.476 Y66.605 E24.05943
G1 X61.955 Y66.343 E24.07885
G1 X61.474 Y66.013 E24.09828
G1 X61.044 Y65.621 E24.11766
G1 X60.671 Y65.173 E24.13708
G1 X60.435 Y64.809 E24.15153
G1 X52.483 Y51.036 E24.68129
G1 X51.726 Y51.723 E24.71535
G0 F2625 X51.366 Y51.374
G1 F900 X48.99 Y53.996 E24.83321
G1 X46.947 Y56.75 E24.94743
G1 X51.665 Y58.467 E25.11468
G1 X52.165 Y58.691 E25.13293
G1 X52.626 Y58.986 E25.15116
G1 X53.04 Y59.344 E25.16939
G1 X53.397 Y59.759 E25.18762
